assets/icons/librescoot-seatbox-button.svg

<svg xmlns="http://www.w3.org/2000/svg" width="1440" height="1440" fill="none" viewBox="0 0 1440 1440"><path fill="#fff" fill-rule="evenodd" d="m861.001 227.5-582.999 937c-435.074-266.967 11.808-596.145 358.343-851.406l.005-.003C687.664 275.292 736.777 239.115 780.501 205zm-555.549 951.2L1330.29 962.514l11.77 55.776-1024.843 216.18zm806.168-591.895c61.84 94.294 99.12 202.296 108.52 314.352l-63.38 5.216c-8.53-101.681-42.36-199.685-98.47-285.25-56.12-85.564-132.758-156.023-223.079-205.077l30.578-55.241c99.536 54.058 184.001 131.705 245.831 226" clip-rule="evenodd"/></svg>

<svg width="1440" height="1440" viewBox="0 0 1440 1440" fill="none" xmlns="http://www.w3.org/2000/svg">
<path fill-rule="evenodd" clip-rule="evenodd" d="M861.001 227.5L278.002 1164.5C-157.072 897.533 289.81 568.355 636.345 313.094L636.35 313.091C687.664 275.292 736.777 239.115 780.501 205L861.001 227.5ZM305.452 1178.7L1330.29 962.514L1342.06 1018.29L317.217 1234.47L305.452 1178.7ZM1111.62 586.805C1173.46 681.099 1210.74 789.101 1220.14 901.157L1156.76 906.373C1148.23 804.692 1114.4 706.688 1058.29 621.123C1002.17 535.559 925.532 465.1 835.211 416.046L865.789 360.805C965.325 414.863 1049.79 492.51 1111.62 586.805Z" fill="white"/>
</svg>
